X:13
T:Master Williams Leave 
O:No 13 Page 5 William Clarke of Feltwell MS 1858
N:Title difficult to read.
N:WC signed this page and wrote in address.
N:Feltwell, nr Brandon, Norfolk
I:abc2nwc
M:6/8
L:1/8
K:G
G|GAG B2B|AGA G3|GAB A2G|G3z2G|
GAG g2g|ede d2G|GAG g2g|ede d2e/2f/2|
g2g f2B|e2e d2G|cBA Bcd|
efg fga|GAB A2G|G3G2|]



